usr/share/icons/biglinux-icons-material-dark/22/actions/office-chart-line.svg

<svg xmlns="http://www.w3.org/2000/svg" viewBox="0 0 22 22">
  <defs id="defs3051">
    <style type="text/css" id="current-color-scheme">
      .ColorScheme-Text {
        color:#dedede;
      }
      .ColorScheme-Highlight {
        color:#3daee9;
      }
      </style>
  </defs>
 <path 
     style="fill:currentColor;fill-opacity:1;stroke:none" 
     d="M 4 3 L 4 9 L 4 10 L 4 15 L 4 16 L 4 17 L 3 17 L 3 18 L 4 18 L 4 19 L 5 19 L 5 18 L 18.292969 18 L 19 18 L 19 17.292969 L 19 17 L 18.707031 17 L 17.958984 16.251953 L 17.130859 15.423828 L 15.130859 13.423828 L 15.126953 13.427734 L 15.121094 13.423828 L 12.998047 15.546875 L 11.703125 14.251953 L 10.875 13.423828 L 8.875 11.423828 L 8.8730469 11.423828 L 7 11.423828 L 6 11.423828 L 5 11.423828 L 5 11 L 5 10 L 6 10 L 7 10 L 8.8730469 10 L 8.875 10 L 10.875 8 L 11.703125 7.171875 L 12.998047 5.8769531 L 15.121094 8 L 15.126953 7.9960938 L 15.130859 8 L 17.130859 6 L 17.958984 5.171875 L 19 4.1308594 L 18.292969 3.4238281 L 17.251953 4.4648438 L 16.423828 5.2929688 L 15.126953 6.5898438 L 13 4.4648438 L 12.998047 4.4667969 L 12.996094 4.4648438 L 11.46875 5.9921875 L 5 5.9921875 L 5 5 L 5 3 L 4 3 z M 5 6 L 11.460938 6 L 10.996094 6.4648438 L 10.167969 7.2929688 L 8.4609375 9 L 7 9 L 6 9 L 5 9 L 5 6 z M 5 12.423828 L 6 12.423828 L 7 12.423828 L 8.4609375 12.423828 L 10.167969 14.130859 L 10.996094 14.958984 L 11.460938 15.423828 L 5 15.423828 L 5 15 L 5 12.423828 z M 15.126953 14.833984 L 16.423828 16.130859 L 17.251953 16.958984 L 17.292969 17 L 5 17 L 5 16 L 5 15.431641 L 11.46875 15.431641 L 12.996094 16.958984 L 12.998047 16.957031 L 13 16.958984 L 15.126953 14.833984 z "
     class="ColorScheme-Text"
     />
</svg>

<svg xmlns="http://www.w3.org/2000/svg" viewBox="0 0 22 22">
<defs id="defs3051">
<style id="current-color-scheme" type="text/css">
.ColorScheme-Text{color:#dedede}
</style>
</defs>
<path d="M4 3v14H3v1h1v1h1v-1h14v-1h-.293l-.748-.748-.828-.828-2-2-.004.004-.006-.004-2.123 2.123-1.295-1.295-.828-.828-2-2H5V10h3.875l2-2 .828-.828 1.295-1.295L15.121 8l.006-.004.004.004 2-2 .828-.828L19 4.13l-.707-.707-1.041 1.04-.828.829-1.297 1.297L13 4.465l-.002.002-.002-.002-1.527 1.527H5V3zm1 3h6.46l-.464.465-.828.828L8.461 9H5zm0 6.424h3.46l1.708 1.707.828.828.465.465H5zm10.127 2.41 1.297 1.297.828.828.041.041H5v-1.568h6.469l1.527 1.527.002-.002.002.002z" class="ColorScheme-Text" style="fill:currentColor;fill-opacity:1;stroke:none"/>
</svg>
